assets/sonr-icons/mail-unread.svg

<svg xmlns="http://www.w3.org/2000/svg" width="24" height="24" fill="none" viewBox="0 0 24 24"><path fill="#000" d="M19 22C17.122 22 15.723 20.307 15.143 19.464C14.949 19.182 14.949 18.818 15.143 18.535C15.723 17.693 17.121 15.999 19 15.999C20.879 15.999 22.277 17.693 22.857 18.535C23.051 18.817 23.051 19.181 22.857 19.464C22.277 20.306 20.879 22 19 22ZM19 20C19.552 20 20 19.552 20 19C20 18.448 19.552 18 19 18C18.448 18 18 18.448 18 19C18 19.552 18.448 20 19 20ZM6.176 8.43401C6.489 7.97901 7.111 7.86301 7.566 8.17501L11.435 10.828C11.776 11.062 12.225 11.062 12.567 10.828L16.436 8.17501C16.891 7.86201 17.514 7.97801 17.826 8.43401C18.138 8.89001 18.023 9.51201 17.567 9.82401L13.698 12.478C12.675 13.179 11.326 13.179 10.303 12.478L6.435 9.82401C5.98 9.51101 5.863 8.89001 6.175 8.43301L6.176 8.43401Z"/><path fill="#000" d="M7.75899 4H16.241C17.046 4 17.71 4 18.252 4.044C18.814 4.09 19.33 4.189 19.816 4.436C20.568 4.819 21.18 5.431 21.564 6.184C21.811 6.669 21.91 7.186 21.955 7.748C21.999 8.29 21.999 8.953 21.999 9.759V13.001C21.999 13.553 21.551 14.001 20.999 14.001C20.447 14.001 19.999 13.553 19.999 13.001V9.801C19.999 8.944 19.998 8.363 19.962 7.912C19.926 7.473 19.861 7.25 19.781 7.093C19.589 6.716 19.283 6.41 18.907 6.219C18.75 6.139 18.527 6.074 18.088 6.038C17.638 6.001 17.055 6.001 16.199 6.001H7.79899C6.94199 6.001 6.35999 6.002 5.90999 6.038C5.47099 6.074 5.24799 6.139 5.09099 6.219C4.71399 6.411 4.40799 6.717 4.21699 7.093C4.13799 7.25 4.07199 7.473 4.03599 7.912C3.99899 8.362 3.99899 8.945 3.99899 9.801V14.201C3.99899 15.058 3.99999 15.64 4.03599 16.09C4.07199 16.529 4.13699 16.752 4.21699 16.909C4.40899 17.286 4.71499 17.592 5.09099 17.783C5.24799 17.863 5.47099 17.928 5.90999 17.964C6.35999 18.001 6.94299 18.002 7.79899 18.002H11.999C12.551 18.002 12.999 18.45 12.999 19.002C12.999 19.554 12.551 20.002 11.999 20.002H7.75799C6.95299 20.002 6.28899 20.002 5.74699 19.958C5.18499 19.912 4.66799 19.813 4.18299 19.566C3.42999 19.183 2.81899 18.571 2.43499 17.818C2.18699 17.333 2.08899 16.816 2.04299 16.254C1.99899 15.713 1.99899 15.049 1.99899 14.243V9.76C1.99899 8.955 1.99899 8.291 2.04299 7.749C2.08899 7.187 2.18799 6.67 2.43499 6.184C2.81799 5.431 3.42999 4.82 4.18299 4.436C4.66799 4.188 5.18499 4.09 5.74699 4.044C6.28899 4 6.95299 4 7.75899 4Z"/></svg>

<svg xmlns="http://www.w3.org/2000/svg" width="24" height="24" fill="none"><path fill="currentColor" d="M19 22c-1.878 0-3.277-1.693-3.857-2.536a.81.81 0 0 1 0-.929c.58-.842 1.978-2.536 3.857-2.536s3.277 1.694 3.857 2.536a.81.81 0 0 1 0 .929C22.277 20.306 20.879 22 19 22m0-2a1 1 0 1 0 0-2 1 1 0 0 0 0 2M6.176 8.434a1 1 0 0 1 1.39-.259l3.869 2.653a1 1 0 0 0 1.132 0l3.869-2.653a.999.999 0 1 1 1.131 1.649l-3.869 2.654a3 3 0 0 1-3.395 0L6.435 9.824a1 1 0 0 1-.26-1.391z"/><path fill="currentColor" d="M7.759 4h8.482c.805 0 1.469 0 2.011.044.562.046 1.078.145 1.564.392a4 4 0 0 1 1.748 1.748c.247.485.346 1.002.391 1.564.044.542.044 1.205.044 2.011v3.242a1 1 0 0 1-2 0v-3.2c0-.857-.001-1.438-.037-1.889-.036-.439-.101-.662-.181-.819a2 2 0 0 0-.874-.874c-.157-.08-.38-.145-.819-.181-.45-.037-1.033-.037-1.889-.037h-8.4c-.857 0-1.439.001-1.889.037-.439.036-.662.101-.819.181a2 2 0 0 0-.874.874c-.079.157-.145.38-.181.819-.037.45-.037 1.033-.037 1.889v4.4c0 .857.001 1.439.037 1.889.036.439.101.662.181.819.192.377.498.683.874.874.157.08.38.145.819.181.45.037 1.033.038 1.889.038h4.2a1 1 0 0 1 0 2H7.758c-.805 0-1.469 0-2.011-.044-.562-.046-1.079-.145-1.564-.392a4 4 0 0 1-1.748-1.748c-.248-.485-.346-1.002-.392-1.564-.044-.541-.044-1.205-.044-2.011V9.76c0-.805 0-1.469.044-2.011.046-.562.145-1.079.392-1.565a4 4 0 0 1 1.748-1.748c.485-.248 1.002-.346 1.564-.392C6.289 4 6.953 4 7.759 4"/></svg>
